X: 14050
T: Fred Finn's
R: reel
M: 4/4
K: Dmajor
|:A3F ABde|fdef d2ed|BEE2 ~G3B|AFF2 dFAF|
~A3F ABde|fdef d2ed|BAGB ABde|faeg fdde:|
|:~f3 a agag|f2af fede|fbba ~b3a|fbba f ~e3|
~f3 a agag|f2af fedB|BAGB ABde|faeg fdde:|

